X: 31077
T: Paddy Fahey's
R: reel
M: 4/4
K: Ddorian
|:D2A,D FEFG|Addc d2de|fedf edcA|dcAG FDCD|
D2A,D FEFG|Addc d2de|f2gf edcA|dcAG FDD2:|
|:d2ed aded|c2Gc EcGc|d2ed aded|cBcd edcA|
a2^ga ABcA|dcAG FDCE|D2DE FEFG|Addc d2de:|

